<?xml version="1.0" encoding="UTF-8"?>
<map version="1.10" tiledversion="1.12.2" orientation="orthogonal" renderorder="right-down" width="25" height="14" tilewidth="64" tileheight="64" infinite="0" nextlayerid="5" nextobjectid="10">
 <tileset firstgid="1" source="tiles_sheet.tsx"/>
 <layer id="3" name="AguaRasa" width="25" height="14">
  <data encoding="csv">
0,0,27,27,27,27,0,0,0,0,27,28,0,0,0,0,0,0,0,0,0,0,0,0,0,
0,0,43,43,59,27,0,0,27,27,27,28,0,0,0,0,0,0,0,0,0,0,0,0,0,
0,0,0,0,26,27,0,0,27,58,43,44,0,0,0,10,11,11,11,11,12,0,0,0,0,
0,0,0,0,26,27,0,0,27,28,0,0,0,0,0,26,27,27,27,27,28,0,0,0,0,
0,0,0,0,26,27,27,27,27,28,0,0,0,0,0,26,27,0,0,27,28,0,0,0,0,
0,0,0,0,42,43,43,43,43,44,0,0,0,0,0,26,27,0,0,27,28,0,0,0,0,
0,0,0,0,0,0,0,0,0,0,0,0,0,0,0,26,27,27,27,27,28,0,0,0,0,
0,0,0,0,0,0,0,0,0,0,0,0,0,0,0,42,43,43,43,43,44,0,0,0,0,
0,0,0,0,0,0,0,0,0,0,0,0,0,0,0,0,0,0,0,0,0,0,0,0,0,
0,0,0,0,0,0,0,0,0,0,0,0,0,0,0,0,0,0,0,0,0,0,0,0,0,
0,0,0,0,0,0,0,0,0,0,0,0,0,0,0,0,0,0,10,11,11,11,11,12,0,
0,0,0,0,0,0,0,0,0,0,0,0,0,10,11,11,11,11,75,27,27,27,27,28,0,
0,0,0,0,0,0,0,0,0,0,0,0,0,26,27,27,27,27,27,27,0,0,0,28,0,
0,0,0,0,0,0,0,0,0,0,0,0,0,26,27,0,0,0,0,0,0,0,0,28,0
</data>
 </layer>
 <layer id="1" name="Land" width="25" height="14">
  <data encoding="csv">
0,0,55,56,55,37,23,24,39,40,41,0,0,0,0,0,0,0,0,0,0,0,0,0,0,
0,0,0,0,0,38,39,40,36,56,57,0,0,0,0,0,0,0,0,0,0,0,0,0,0,
0,0,0,0,0,22,23,24,25,0,0,0,0,0,0,0,0,0,0,0,0,0,0,0,0,
0,0,0,0,0,38,39,40,41,0,0,0,0,0,0,0,6,7,8,9,0,0,0,0,0,
0,0,0,0,0,54,55,56,57,0,0,0,0,0,0,0,22,23,24,25,0,0,0,0,0,
0,0,0,0,0,0,0,0,0,0,0,0,0,0,0,0,38,39,40,41,0,0,0,0,0,
0,0,0,0,0,0,0,0,0,0,0,0,0,0,0,0,54,82,56,57,0,0,0,0,0,
0,0,0,0,0,0,0,0,0,0,0,0,0,0,0,0,0,0,0,0,0,0,0,0,0,
0,0,0,0,0,0,0,0,0,0,0,0,0,0,0,0,0,0,0,0,0,0,0,0,0,
0,0,0,0,0,0,0,0,0,0,0,0,0,0,0,0,0,0,0,0,0,0,0,0,0,
0,0,0,0,0,0,0,0,0,0,0,0,0,0,0,0,0,0,0,0,0,0,0,0,0,
0,0,0,0,0,0,0,0,0,0,0,0,0,0,0,0,0,0,0,6,7,8,9,0,0,
0,0,0,0,0,0,0,0,0,0,0,0,0,0,6,7,8,9,0,22,23,24,25,0,0,
0,0,0,0,0,0,0,0,0,0,0,0,0,0,22,23,24,52,7,53,39,40,41,0,0
</data>
 </layer>
 <layer id="4" name="Decorations" width="25" height="14">
  <data encoding="csv">
0,26,51,93,48,16,78,0,31,71,0,0,0,0,0,0,0,0,0,0,0,0,0,0,0,
0,42,0,0,0,0,93,76,94,0,0,0,0,0,0,0,0,0,0,0,0,0,0,0,0,
0,0,0,0,0,0,0,0,0,0,0,0,0,0,0,0,0,0,0,0,0,0,0,0,0,
0,0,0,0,0,71,0,0,66,0,0,0,0,0,0,0,0,0,0,66,0,0,0,0,0,
0,0,0,0,0,0,0,0,0,0,0,0,0,0,0,0,0,70,71,67,0,0,0,0,0,
0,0,0,0,0,0,0,0,0,0,0,0,0,0,0,0,88,88,71,0,0,0,0,0,0,
0,0,0,0,0,0,0,0,0,0,0,0,0,0,0,0,0,0,0,0,0,0,0,0,0,
0,0,0,0,0,0,0,0,0,0,0,0,0,0,0,0,0,0,0,0,0,0,0,0,0,
0,0,0,0,0,0,0,0,0,0,0,0,0,0,0,0,0,0,0,0,0,0,0,0,0,
0,0,0,0,0,0,0,0,0,0,0,0,0,0,0,0,0,0,0,0,0,0,0,0,0,
0,0,0,0,0,0,0,0,0,0,0,0,0,0,0,0,0,0,0,0,0,0,0,0,0,
0,0,0,0,0,0,0,0,0,0,0,0,0,0,0,0,0,0,0,0,0,0,0,0,0,
0,0,0,0,0,0,0,0,0,0,0,0,0,0,0,0,3221225554,0,0,0,0,0,0,0,0,
0,0,0,0,0,0,0,0,0,0,0,0,0,0,0,0,0,0,66,0,0,0,0,0,0
</data>
 </layer>
 <objectgroup id="2" name="Colision">
  <object id="2" x="128" y="0" width="580" height="64"/>
  <object id="3" x="322" y="66" width="250" height="250"/>
  <object id="4" x="570" y="64" width="134" height="62"/>
  <object id="5" x="1026" y="186" width="252" height="258"/>
  <object id="6" x="894" y="766" width="254" height="132"/>
  <object id="7" x="1216" y="706" width="254" height="188"/>
  <object id="8" x="1150" y="834" width="66" height="62"/>
 </objectgroup>
</map>
